X:326
T:Woman's work is never done - Chappell
F:http://www.vwml.org/record/SBG/3/
Z:Original Sibelius transcriptions by M. & S. Graebe
M:4/4
I:linebreak $
K:Bb
V:1 treble nm="P1"
V:1
 B3/2 c/ A B | G G A (G/F/) | B3/2 c/ A d | G ^F G2 :| B3/2 c/ d e | c B A G/F/ |$ B3/2 c/ d e | %7
 c B c2 | d B c A | B G F E/D/ | B3/2 c/ A d | G ^F G2 | %12

